X: 2
T: Julianne Johnson
M: C|
L: 1/8
R: reel
K: D
|"D"fafe dfed| Bd- de d2fg| a2 a2-aab2|"A" a8|
"D"fafe dfed| Bd- de d2fg|f2 e2 dA B2| [1 "A" A8:|[2 "A" A6||
|:A2|"G" B4 d3 A|BABc d3 A|BABc dA B2 |"D"A6- AA|
"G"BABc d2 AA|BABc d2 e2|"D"f2ff  edB2| [1 "A7"A6:|[2 "A7" A8 |["Transition""A"A3A- Ace^g||

